icons/desktop/12/svg/leaf-12.svg

<svg width="12" height="12" viewBox="0 0 12 12" fill="none" xmlns="http://www.w3.org/2000/svg">
<path fill-rule="evenodd" clip-rule="evenodd" d="M8.91632 1C10.0652 1.00017 11.0003 1.93511 11.0003 3.08301V6.00098C11.0003 7.51298 10.3267 8.92779 9.15167 9.88379C8.25268 10.6147 7.14047 11 5.99151 11C5.63967 11 5.28382 10.9636 4.92999 10.8906C4.12312 10.7221 3.38217 10.3449 2.76593 9.82227C2.55051 10.111 2.34494 10.4074 2.15069 10.7109C2.03175 10.8978 1.83017 10.9989 1.62432 10.999C1.50949 10.999 1.39227 10.9682 1.28839 10.9014C0.997415 10.7154 0.912029 10.3291 1.09796 10.0381C1.3511 9.64212 1.62195 9.25723 1.9085 8.88477C1.52652 8.3451 1.24718 7.73075 1.10968 7.07129C0.795678 5.5623 1.16253 4.02365 2.11651 2.84766C3.07151 1.67366 4.48732 1 5.99932 1H8.91632ZM5.99932 2.25C4.86544 2.25 3.80321 2.75489 3.08721 3.63672C2.37121 4.51772 2.09631 5.67645 2.33331 6.81445C2.41242 7.19384 2.55453 7.55317 2.74542 7.88281C2.92371 7.68601 3.10674 7.49317 3.29425 7.30566C4.12006 6.47989 5.04093 5.74022 6.02667 5.11035C6.31663 4.92238 6.70292 5.00793 6.88995 5.29883C7.07595 5.58983 6.99052 5.97711 6.69952 6.16211C5.78867 6.74406 4.94093 7.42756 4.17803 8.18945C3.963 8.4045 3.75468 8.62644 3.55303 8.85449C4.01608 9.2516 4.57493 9.53814 5.18389 9.66504C6.32278 9.90401 7.48066 9.62894 8.36163 8.91211C9.24263 8.19611 9.74835 7.134 9.74835 6V3.08203C9.74835 2.62315 9.3742 2.24922 8.91436 2.24902L5.99932 2.25Z" fill="black"/>
</svg>

<!-- This Source Code Form is subject to the terms of the Mozilla Public
   - License, v. 2.0. If a copy of the MPL was not distributed with this
   - file, You can obtain one at http://mozilla.org/MPL/2.0/. -->
<svg xmlns="http://www.w3.org/2000/svg" width="12" height="12" fill="context-fill" fill-opacity="context-fill-opacity" viewBox="0 0 12 12">
    <path fill-rule="evenodd" d="M8.916 1C10.066 1 11 1.935 11 3.083v2.918a4.99 4.99 0 0 1-1.848 3.883A5 5 0 0 1 5.992 11q-.53 0-1.062-.11a4.9 4.9 0 0 1-2.164-1.068 15 15 0 0 0-.615.889.62.62 0 0 1-.863.19.625.625 0 0 1-.19-.863q.38-.594.81-1.153A4.9 4.9 0 0 1 1.11 7.07a5.04 5.04 0 0 1 1.007-4.223A4.99 4.99 0 0 1 5.999 1zM6 2.25a3.74 3.74 0 0 0-2.912 1.387 3.79 3.79 0 0 0-.754 3.177c.08.38.222.74.412 1.069A16.2 16.2 0 0 1 6.027 5.11.623.623 0 1 1 6.7 6.162a15 15 0 0 0-3.147 2.692 3.66 3.66 0 0 0 1.63.811 3.78 3.78 0 0 0 3.179-.753A3.74 3.74 0 0 0 9.748 6V3.082a.835.835 0 0 0-.834-.833z" clip-rule="evenodd" />
</svg>
